image/icons-main-page/souvenirs.svg

<svg width="76" height="77" viewBox="0 0 76 77" fill="none" xmlns="http://www.w3.org/2000/svg">
<path d="M66.7499 22.9467H66.6499H41.9499C55.7499 16.0467 56.8499 11.6467 56.3499 9.24674C55.1499 5.24674 50.6499 2.24674 46.3499 3.84674C40.7499 5.94674 39.2499 14.2467 37.7499 20.2467C35.7499 14.1467 33.9499 6.44674 29.5499 2.54674C28.2499 1.44674 26.4499 0.246744 23.7499 0.546744C19.7499 0.946744 13.9499 5.94674 16.2499 11.5467C18.5499 16.9467 25.9499 20.3467 30.8499 23.0467H8.8499H8.5499C6.9499 23.0467 5.6499 24.3467 5.6499 25.9467V37.2467C5.6499 38.8467 6.9499 40.1467 8.5499 40.1467H8.8499V73.4467V75.8467V76.4467H66.6499V75.9467V73.4467V40.0467H66.7499C68.3499 40.0467 69.6499 38.7467 69.6499 37.1467V25.8467C69.6499 24.2467 68.3499 22.9467 66.7499 22.9467ZM48.0499 6.34674C50.1499 6.04674 53.0499 7.64674 53.3499 9.54674C53.7499 12.3467 49.9499 14.8467 48.2499 15.9467C45.7499 17.6467 43.3499 18.5467 40.9499 20.0467C41.8499 16.3467 43.4499 7.04674 48.0499 6.34674ZM25.1499 16.3467C22.9499 14.8467 18.6499 11.9467 18.7499 8.54674C18.8499 4.94674 24.4499 1.94674 27.5499 4.64674C31.4499 8.04674 33.2499 15.7467 34.6499 21.2467C31.4499 19.7467 28.3499 18.4467 25.1499 16.3467ZM31.1499 73.4467H11.7499V40.0467H31.1499V73.4467ZM31.1499 36.9467H8.6499V25.9467H31.1499V36.9467ZM41.3499 36.9467V39.9467V73.4467H34.1499V40.0467V37.0467V26.0467H41.3499V36.9467ZM63.6499 73.4467H44.2499V40.0467H63.6499V73.4467ZM66.5499 36.9467H44.2499V25.9467H66.5499V36.9467Z" fill="#83B3D3"/>
</svg>

<svg width="76" height="77" fill="none" xmlns="http://www.w3.org/2000/svg"><path d="M66.75 22.95h-24.8c13.8-6.9 14.9-11.3 14.4-13.7-1.2-4-5.7-7-10-5.4-5.6 2.1-7.1 10.4-8.6 16.4-2-6.1-3.8-13.8-8.2-17.7-1.3-1.1-3.1-2.3-5.8-2-4 .4-9.8 5.4-7.5 11 2.3 5.4 9.7 8.8 14.6 11.5H8.55a2.9 2.9 0 0 0-2.9 2.9v11.3c0 1.6 1.3 2.9 2.9 2.9h.3v36.3h57.8v-36.4h.1c1.6 0 2.9-1.3 2.9-2.9v-11.3c0-1.6-1.3-2.9-2.9-2.9Zm-18.7-16.6c2.1-.3 5 1.3 5.3 3.2.4 2.8-3.4 5.3-5.1 6.4-2.5 1.7-4.9 2.6-7.3 4.1.9-3.7 2.5-13 7.1-13.7Zm-22.9 10c-2.2-1.5-6.5-4.4-6.4-7.8.1-3.6 5.7-6.6 8.8-3.9 3.9 3.4 5.7 11.1 7.1 16.6-3.2-1.5-6.3-2.8-9.5-4.9Zm6 57.1h-19.4v-33.4h19.4v33.4Zm0-36.5H8.65v-11h22.5v11Zm10.2 0v36.5h-7.2v-47.4h7.2v10.9Zm22.3 36.5h-19.4v-33.4h19.4v33.4Zm2.9-36.5h-22.3v-11h22.3v11Z" fill="#83B3D3"/></svg>
